src/assets/images/homepage/home/partner_logo_3.svg

<svg fill="none" height="89" viewBox="0 0 89 89" width="89" xmlns="http://www.w3.org/2000/svg" xmlns:xlink="http://www.w3.org/1999/xlink"><clipPath id="a"><path d="m0 0h88.45v88.45h-88.45z"/></clipPath><g clip-path="url(#a)"><path d="m44.225 88.45c24.4248 0 44.225-19.8002 44.225-44.225s-19.8002-44.225-44.225-44.225-44.225 19.8002-44.225 44.225 19.8002 44.225 44.225 44.225z" fill="#000426"/><path d="m44.7027 28.1929v-13.9751c-16.5549 0-29.961 13.4068-29.961 29.9609 0 16.5549 13.4068 29.9625 29.961 29.9625v-13.9751c-8.8362 0-15.9859-7.1505-15.9859-15.9874 0-8.8354 7.1497-15.9858 15.9859-15.9858z" fill="#fff"/><path d="m60.7473 28.1929c-.9176 0-1.8262-.1808-2.674-.5319-.8478-.3512-1.618-.8659-2.2669-1.5147-.6488-.6489-1.1635-1.4192-1.5147-2.267-.3512-.8477-.5319-1.7564-.5319-2.674s.1807-1.8262.5319-2.674.8659-1.6181 1.5147-2.2669c.6489-.6489 1.4191-1.1636 2.2669-1.5147.8478-.3512 1.7564-.5319 2.674-.5319 1.8533 0 3.6306.7362 4.941 2.0466s2.0466 3.0877 2.0466 4.9409c0 1.8533-.7362 3.6305-2.0466 4.941-1.3104 1.3104-3.0877 2.0466-4.941 2.0466z" fill="#00d8d5"/><path d="m60.6301 74.1401c-1.8532 0-3.6306-.7362-4.9409-2.0465-1.3104-1.3105-2.0466-3.0878-2.0466-4.941s.7362-3.6305 2.0466-4.941c1.3103-1.3104 3.0877-2.0466 4.9409-2.0466s3.6305.7362 4.941 2.0466c1.3104 1.3105 2.0466 3.0878 2.0466 4.941s-.7362 3.6305-2.0466 4.941c-1.3105 1.3103-3.0878 2.0465-4.941 2.0465z" fill="#ea048c"/><path d="m60.6892 44.179c0 8.8369-7.1497 15.9873-15.9866 15.9873v-31.9739c8.8362 0 15.9866 7.1504 15.9866 15.9866z" fill="#fff"/></g></svg>

<svg width="89" height="89" viewBox="0 0 89 89" fill="none" xmlns="http://www.w3.org/2000/svg">
<g clip-path="url(#clip0_5626_12249)">
<path d="M44.225 88.45C68.6498 88.45 88.45 68.6498 88.45 44.225C88.45 19.8002 68.6498 0 44.225 0C19.8002 0 0 19.8002 0 44.225C0 68.6498 19.8002 88.45 44.225 88.45Z" fill="#000426"/>
<path d="M44.7027 28.1929V14.2178C28.1478 14.2178 14.7417 27.6246 14.7417 44.1787C14.7417 60.7336 28.1485 74.1412 44.7027 74.1412V60.1661C35.8665 60.1661 28.7168 53.0156 28.7168 44.1787C28.7168 35.3433 35.8665 28.1929 44.7027 28.1929Z" fill="white"/>
<path d="M60.7473 28.1929C59.8297 28.1929 58.9211 28.0121 58.0733 27.661C57.2255 27.3098 56.4553 26.7951 55.8064 26.1463C55.1576 25.4974 54.6429 24.7271 54.2917 23.8793C53.9405 23.0316 53.7598 22.1229 53.7598 21.2053C53.7598 20.2877 53.9405 19.3791 54.2917 18.5313C54.6429 17.6835 55.1576 16.9132 55.8064 16.2644C56.4553 15.6155 57.2255 15.1008 58.0733 14.7497C58.9211 14.3985 59.8297 14.2178 60.7473 14.2178C62.6006 14.2178 64.3779 14.954 65.6883 16.2644C66.9987 17.5748 67.7349 19.3521 67.7349 21.2053C67.7349 23.0586 66.9987 24.8358 65.6883 26.1463C64.3779 27.4567 62.6006 28.1929 60.7473 28.1929Z" fill="#00D8D5"/>
<path d="M60.6301 74.1401C58.7769 74.1401 56.9995 73.4039 55.6892 72.0936C54.3788 70.7831 53.6426 69.0058 53.6426 67.1526C53.6426 65.2994 54.3788 63.5221 55.6892 62.2116C56.9995 60.9012 58.7769 60.165 60.6301 60.165C62.4833 60.165 64.2606 60.9012 65.5711 62.2116C66.8815 63.5221 67.6177 65.2994 67.6177 67.1526C67.6177 69.0058 66.8815 70.7831 65.5711 72.0936C64.2606 73.4039 62.4833 74.1401 60.6301 74.1401Z" fill="#EA048C"/>
<path d="M60.6892 44.179C60.6892 53.0159 53.5395 60.1663 44.7026 60.1663V28.1924C53.5388 28.1924 60.6892 35.3428 60.6892 44.179Z" fill="white"/>
</g>
<defs>
<clipPath id="clip0_5626_12249">
<rect width="88.45" height="88.45" fill="white"/>
</clipPath>
</defs>
</svg>
